X:1
T:Voices Are Calling
T:Voices Are Calling
T:Darrell Koehn
T:D.K.
C:Darrell Koehn
Z:Darrell Koehn
%%score { ( 1 3 ) | 2 }
L:1/8
M:3/4
K:F
V:1 treble nm="Piano" snm="Pno."
V:3 treble 
V:2 bass 
V:1
 [FA]3 [FA] [FA]3/2 [FA]/ | [EG]2 [EA]2 [EG]2 | [DF]3 [DF] [DF]3/2 [DF]/ | [CF]6 | %4
w: 1.There are voi- ces|call- ing that|want to steal your|heart,|
w: 2.There are hon- ors|giv- en to|those who seek for|fame;|
w: 3.Plea- sures of this|life all a-|round us now we|see;|
 [FB]3 [FB] [FB]3/2 [FB]/ | [FA]2 [FA]2 [FA]>[FA] | [EG]3 [EG] [EG]3/2 [FA]/ | [EG]6 | %8
w: Backed by gold and|sil- ver and the|things of earth- ly|art.|
w: Some use all their|tal- ents just to|play this earth- ly|game.|
w: Some will fol- low|them and will *|end up shame- ful-|ly.|
 [FA]3 [FA] [FA]3/2 [GB]/ | [Ac]2 [GB]2 [FA]2 | [DG]3 [DF] [DF]3/2 [DG]/ | [CF]6 | D2 [DF]2 [FA]2 | %13
w: As they catch your|ear, does your|soul de- sire a|part?||
w: Would you find some|plea- sure if|they would call your|name?|Who has con-|
w: Have you wished at|times that these|things for you might|be?||
 [EG]2 [FA]2 [EG]2 | [CF]6- | [CF]4 z2 |] c6- | c2 A2 G2 | F6 | B6 | c6- | c2 d2 c2 | c6- | c6 | %24
w: |||Voi-|* ces are|call-|ing,|Call-|* ing to|you.||
w: trol of your|heart?||||||||||
w: |||||||||||
 c6- | c2 A2 G2 | F6 | B6 | C2 [CF]2 [FA]2 | [EG]2 [EA]2 [EG]2 | [CF]6- | [CF]4 z2 |] %32
w: Voi-|* ces are|call-|ing,|||||
w: ||||Will to the|Lord you be|true?||
w: ||||||||
V:2
 [F,C]3 [F,C] [F,C]3/2 [F,C]/ | [C,C]2 [C,C]2 [C,C]2 | [B,,B,]3 [B,,B,] [B,,B,]3/2 [B,,B,]/ | %3
 [F,A,]6 | [B,,D]3 [B,,D] [B,,D]3/2 [B,,D]/ | [F,C]2 [F,C]2 [F,C]>[F,C] | %6
 [C,C]3 [C,C] [C,C]3/2 [C,C]/ | [C,C]6 | [F,C]3 [F,C] [F,C]3/2 [F,B,]/ | [F,A,]2 [C,C]2 [F,C]2 | %10
 [B,,B,]3 [B,,B,] [B,,B,]3/2 [B,,B,]/ | [F,A,]6 | [F,B,]2 [F,B,]2 [D,C]2 | [C,C]2 [C,C]2 [C,B,]2 | %14
 [F,A,]6- | [F,A,]4 z2 |] [F,F]2 [F,F]2 [F,F]2 | [F,F]2 [F,C]2 [F,C]2 | [B,,B,]4 [B,,B,]2 | %19
 [B,,B,]2 [B,,D]4 | [F,F]2 [F,F]2 [F,F]2 | [F,F]6 | [C,E]2 [C,E]2 [C,E]2 | [C,E]6 | %24
 [F,F]2 [F,F]2 [F,F]2 | [F,F]2 [F,C]2 [F,C]2 | [B,,B,]4 [B,,B,]2 | [B,,B,]2 [B,,D]4 | %28
 [F,A,]2 [F,A,]2 [F,C]2 | [C,C]2 [C,C]2 [C,B,]2 | [F,A,]6- | [F,A,]4 z2 |] %32
V:3
 x6 | x6 | x6 | x6 | x6 | x6 | x6 | x6 | x6 | x6 | x6 | x6 | x6 | x6 | x6 | x6 |] A2 A2 A2 | %17
w: ||||||||||||||||Voi- ces are|
 A2 F2 F2 | D4 D2 | D2 F4 | A2 A2 A2 | A6 | G2 G2 G2 | G2 A2 B2 | A2 A2 A2 | A2 F2 F2 | D4 D2 | %27
w: call- ing, yes,|cal- ing,|call- ing,|Call- ing to|you,|call- ing to|you. (to you)|Voi- ces are|call- ing, yes,|call- ing,|
 D2 F4 | x6 | x6 | x6 | x6 |] %32
w: call- ing,|||||

